mimes/16/application-x-desktop.svg

<?xml version="1.0" encoding="UTF-8" standalone="no"?>
<svg
   xmlns:dc="http://purl.org/dc/elements/1.1/"
   xmlns:cc="http://creativecommons.org/ns#"
   xmlns:rdf="http://www.w3.org/1999/02/22-rdf-syntax-ns#"
   xmlns:svg="http://www.w3.org/2000/svg"
   xmlns="http://www.w3.org/2000/svg"
   xmlns:xlink="http://www.w3.org/1999/xlink"
   version="1.1"
   width="16"
   height="16"
   id="svg3810">
  <defs
     id="defs3812">
    <linearGradient
       x1="23.99999"
       y1="5.5641499"
       x2="23.99999"
       y2="43"
       id="linearGradient3988"
       xlink:href="#linearGradient3977"
       gradientUnits="userSpaceOnUse"
       gradientTransform="matrix(0.24324324,0,0,0.35135133,2.1621636,-0.43242804)" />
    <linearGradient
       id="linearGradient3977">
      <stop
         id="stop3979"
         style="stop-color:#ffffff;stop-opacity:1"
         offset="0" />
      <stop
         id="stop3981"
         style="stop-color:#ffffff;stop-opacity:0.23529412"
         offset="0.03626217" />
      <stop
         id="stop3983"
         style="stop-color:#ffffff;stop-opacity:0.15686275"
         offset="0.95056331" />
      <stop
         id="stop3985"
         style="stop-color:#ffffff;stop-opacity:0.39215687"
         offset="1" />
    </linearGradient>
    <linearGradient
       id="linearGradient3600">
      <stop
         id="stop3602"
         style="stop-color:#f4f4f4;stop-opacity:1"
         offset="0" />
      <stop
         id="stop3604"
         style="stop-color:#dbdbdb;stop-opacity:1"
         offset="1" />
    </linearGradient>
    <linearGradient
       id="linearGradient3104">
      <stop
         id="stop3106"
         style="stop-color:#a0a0a0;stop-opacity:1"
         offset="0" />
      <stop
         id="stop3108"
         style="stop-color:#bebebe;stop-opacity:1"
         offset="1" />
    </linearGradient>
    <linearGradient
       x1="25.132275"
       y1="0.98520643"
       x2="25.132275"
       y2="47.013336"
       id="linearGradient3806"
       xlink:href="#linearGradient3600"
       gradientUnits="userSpaceOnUse"
       gradientTransform="matrix(0.31428714,0,0,0.3259265,0.457108,-0.32223804)" />
    <linearGradient
       x1="-51.786404"
       y1="50.786446"
       x2="-51.786404"
       y2="2.9062471"
       id="linearGradient3808"
       xlink:href="#linearGradient3104"
       gradientUnits="userSpaceOnUse"
       gradientTransform="matrix(0.25378586,0,0,0.30501865,19.128979,-0.68547704)" />
    <linearGradient
       x1="7.6940594"
       y1="15.072772"
       x2="7.6940594"
       y2="1.0614462"
       id="linearGradient4233"
       xlink:href="#linearGradient3104"
       gradientUnits="userSpaceOnUse" />
  </defs>
  <metadata
     id="metadata3815">
    <rdf:RDF>
      <cc:Work
         rdf:about="">
        <dc:format>image/svg+xml</dc:format>
        <dc:type
           rdf:resource="http://purl.org/dc/dcmitype/StillImage" />
        <dc:title />
      </cc:Work>
    </rdf:RDF>
  </metadata>
  <g
     id="layer1">
    <path
       d="m 2.4999621,0.49997396 c 2.5206756,0 11.0000629,9.54e-4 11.0000629,9.54e-4 l 1.3e-5,14.99909804 c 0,0 -7.3333841,0 -11.0000759,0 0,-5.000017 0,-10.000035 0,-15.00005204 z"
       id="path4160"
       style="fill:url(#linearGradient3806);fill-opacity:1;stroke:url(#linearGradient3808);stroke-width:0.99992192;stroke-linecap:butt;stroke-linejoin:round;stroke-miterlimit:4;stroke-opacity:1;stroke-dasharray:none;stroke-dashoffset:0;display:inline" />
    <path
       d="m 12.5,14.5 -9.0000001,0 0,-13 L 12.5,1.5 z"
       id="rect6741-1"
       style="fill:none;stroke:url(#linearGradient3988);stroke-width:1;stroke-linecap:round;stroke-linejoin:miter;stroke-miterlimit:4;stroke-opacity:1;stroke-dasharray:none;stroke-dashoffset:0" />
    <path
       d="m 7.25,4.999999 c -0.1385,0 -0.25,0.1115 -0.25,0.25 l 0,0.9375 C 6.90391,6.221988 6.810021,6.268763 6.71875,6.312499 L 6.0625,5.656249 C 6.01353,5.607282 5.938905,5.562499 5.875,5.562499 c -0.06391,0 -0.138533,0.044783 -0.1875,0.09375 l -1.03125,1.03125 c -0.09793,0.097934 -0.09793,0.2770659 0,0.375 l 0.65625,0.65625 c -0.04374,0.09127 -0.09051,0.1851638 -0.125,0.28125 l -0.9375,0 c -0.1385,0 -0.25,0.1115 -0.25,0.25 l 0,1.5 c 0,0.1385 0.1115,0.25 0.25,0.25 l 0.9375,0 c 0.03449,0.096091 0.08126,0.189979 0.125,0.281251 L 4.65625,10.9375 c -0.09793,0.09793 -0.09793,0.277065 0,0.375 l 1.03125,1.03125 c 0.09793,0.09793 0.277066,0.09793 0.375,0 L 6.71875,11.6875 C 6.81002,11.73124 6.903914,11.77801 7,11.8125 L 7,12.75 C 7,12.8885 7.1115,13 7.25,13 l 1.5,0 C 8.8885,13 9,12.8885 9,12.75 l 0,-0.9375 c 0.096086,-0.03449 0.1899795,-0.08126 0.28125,-0.125 l 0.65625,0.65625 c 0.097934,0.09793 0.277065,0.09793 0.375,0 l 1.03125,-1.03125 c 0.09793,-0.09793 0.09793,-0.277066 0,-0.375 L 10.6875,10.28125 c 0.04374,-0.09127 0.09051,-0.185165 0.125,-0.281251 l 0.9375,0 c 0.1385,0 0.25,-0.1115 0.25,-0.25 l 0,-1.5 c 0,-0.1385 -0.1115,-0.25 -0.25,-0.25 l -0.9375,0 C 10.77801,7.903913 10.73124,7.8100195 10.6875,7.718749 l 0.65625,-0.65625 c 0.09793,-0.097934 0.09793,-0.2770656 0,-0.375 L 10.3125,5.656249 c -0.09793,-0.097934 -0.277066,-0.097935 -0.375,0 L 9.28125,6.312499 C 9.189979,6.268763 9.0960862,6.221988 9,6.187499 l 0,-0.9375 c 0,-0.1385 -0.1115,-0.25 -0.25,-0.25 l -1.5,0 z m 0.75,3 c 0.552,0 1,0.448 1,1 0,0.552 -0.448,1 -1,1 -0.552,0 -1,-0.448 -1,-1 0,-0.552 0.448,-1 1,-1 z"
       id="path2502"
       style="opacity:0.4;fill:#ffffff;fill-opacity:1;fill-rule:nonzero;stroke:none;stroke-width:1.70000005;marker:none;visibility:visible;display:inline;overflow:visible;enable-background:accumulate" />
    <path
       d="m 7.25,3.999999 c -0.1385,0 -0.25,0.1115 -0.25,0.25 l 0,0.9375 C 6.90391,5.221988 6.810021,5.268763 6.71875,5.312499 L 6.0625,4.656249 C 6.01353,4.607282 5.938905,4.562499 5.875,4.562499 c -0.06391,0 -0.138533,0.044783 -0.1875,0.09375 l -1.03125,1.03125 c -0.09793,0.097934 -0.09793,0.2770659 0,0.375 l 0.65625,0.65625 c -0.04374,0.09127 -0.09051,0.1851638 -0.125,0.28125 l -0.9375,0 c -0.1385,0 -0.25,0.1115 -0.25,0.25 l 0,1.5 c 0,0.1385 0.1115,0.25 0.25,0.25 l 0.9375,0 c 0.03449,0.096086 0.08126,0.1899795 0.125,0.28125 l -0.65625,0.65625 c -0.09793,0.097937 -0.09793,0.277066 0,0.375001 l 1.03125,1.03125 c 0.09793,0.09793 0.277066,0.09793 0.375,0 L 6.71875,10.6875 C 6.81002,10.73124 6.903914,10.77801 7,10.8125 L 7,11.75 C 7,11.8885 7.1115,12 7.25,12 l 1.5,0 C 8.8885,12 9,11.8885 9,11.75 l 0,-0.9375 c 0.096086,-0.03449 0.1899795,-0.08126 0.28125,-0.125 l 0.65625,0.65625 c 0.097934,0.09793 0.277065,0.09793 0.375,0 l 1.03125,-1.03125 c 0.09793,-0.09793 0.09793,-0.277066 0,-0.375001 L 10.6875,9.281249 c 0.04374,-0.091271 0.09051,-0.1851638 0.125,-0.28125 l 0.9375,0 c 0.1385,0 0.25,-0.1115 0.25,-0.25 l 0,-1.5 c 0,-0.1385 -0.1115,-0.25 -0.25,-0.25 l -0.9375,0 C 10.77801,6.903913 10.73124,6.8100195 10.6875,6.718749 l 0.65625,-0.65625 c 0.09793,-0.097934 0.09793,-0.2770656 0,-0.375 L 10.3125,4.656249 c -0.09793,-0.097934 -0.277066,-0.097935 -0.375,0 L 9.28125,5.312499 C 9.189979,5.268763 9.0960862,5.221988 9,5.187499 l 0,-0.9375 c 0,-0.1385 -0.1115,-0.25 -0.25,-0.25 l -1.5,0 z m 0.75,3 c 0.552,0 1,0.448 1,1 0,0.552 -0.448,1 -1,1 -0.552,0 -1,-0.448 -1,-1 0,-0.552 0.448,-1 1,-1 z"
       id="rect2484"
       style="fill:url(#linearGradient4233);fill-opacity:1;fill-rule:nonzero;stroke:none;stroke-width:1.70000005;marker:none;visibility:visible;display:inline;overflow:visible;enable-background:accumulate" />
  </g>
</svg>

<svg xmlns="http://www.w3.org/2000/svg" xmlns:xlink="http://www.w3.org/1999/xlink" viewBox="0 0 16 16"><defs><linearGradient x1="24" y1="5.564" x2="24" y2="43" id="f" xlink:href="#a" gradientUnits="userSpaceOnUse" gradientTransform="matrix(.24324 0 0 .35135 2.162 -.432)"/><linearGradient id="a"><stop offset="0" stop-color="#fff"/><stop offset=".036" stop-color="#fff" stop-opacity=".235"/><stop offset=".951" stop-color="#fff" stop-opacity=".157"/><stop offset="1" stop-color="#fff" stop-opacity=".392"/></linearGradient><linearGradient id="b"><stop offset="0" stop-color="#f4f4f4"/><stop offset="1" stop-color="#dbdbdb"/></linearGradient><linearGradient id="c"><stop offset="0" stop-color="#a0a0a0"/><stop offset="1" stop-color="#bebebe"/></linearGradient><linearGradient x1="25.132" y1=".985" x2="25.132" y2="47.013" id="d" xlink:href="#b" gradientUnits="userSpaceOnUse" gradientTransform="matrix(.3143 0 0 .32593 .457 -.322)"/><linearGradient x1="-51.786" y1="50.786" x2="-51.786" y2="2.906" id="e" xlink:href="#c" gradientUnits="userSpaceOnUse" gradientTransform="matrix(.2538 0 0 .30502 19.13 -.685)"/><linearGradient x1="7.694" y1="15.073" x2="7.694" y2="1.061" id="g" xlink:href="#c" gradientUnits="userSpaceOnUse"/></defs><path d="M2.5.5h11v15h-11V.5z" fill="url(#d)" stroke="url(#e)" stroke-linejoin="round"/><path d="M12.5 14.5h-9v-13h9z" fill="none" stroke="url(#f)" stroke-linecap="round"/><path d="M7.25 5a.25.25 0 0 0-.25.25v.937c-.096.035-.19.082-.28.125l-.657-.656c-.05-.05-.124-.094-.188-.094s-.14.045-.188.094l-1.03 1.03a.276.276 0 0 0 0 .376l.655.657c-.043.09-.09.182-.125.28H4.25a.25.25 0 0 0-.25.25v1.5c0 .136.112.25.25.25h.938c.034.094.08.19.125.28l-.657.656a.276.276 0 0 0 0 .374l1.032 1.033a.276.276 0 0 0 .375 0l.656-.656c.09.043.182.09.28.124v.94c0 .14.11.25.25.25h1.5c.14 0 .25-.11.25-.25v-.94c.094-.032.19-.08.28-.122l.656.656a.276.276 0 0 0 .374 0l1.033-1.03a.276.276 0 0 0 0-.377l-.656-.656c.043-.09.09-.183.124-.28h.94a.25.25 0 0 0 .25-.25v-1.5a.25.25 0 0 0-.25-.25h-.94c-.032-.095-.08-.19-.122-.28l.656-.657a.276.276 0 0 0 0-.375l-1.03-1.03a.276.276 0 0 0-.377 0l-.656.655c-.09-.043-.183-.09-.28-.125V5.25A.25.25 0 0 0 8.75 5h-1.5zM8 8a1 1 0 1 1 0 2 1 1 0 0 1 0-2z" opacity=".4" fill="#fff" overflow="visible"/><path d="M7.25 4a.25.25 0 0 0-.25.25v.937c-.096.035-.19.082-.28.125l-.657-.656c-.05-.05-.124-.094-.188-.094s-.14.045-.188.094l-1.03 1.03a.276.276 0 0 0 0 .376l.655.657c-.043.09-.09.182-.125.28H4.25a.25.25 0 0 0-.25.25v1.5c0 .136.112.25.25.25h.938c.034.094.08.19.125.28l-.657.655a.276.276 0 0 0 0 .375l1.032 1.033a.276.276 0 0 0 .375 0l.656-.656c.09.043.182.09.28.124v.94c0 .14.11.25.25.25h1.5c.14 0 .25-.11.25-.25v-.94c.094-.032.19-.08.28-.122l.656.656a.276.276 0 0 0 .374 0l1.033-1.03a.276.276 0 0 0 0-.377l-.656-.656c.043-.09.09-.183.124-.28h.94a.25.25 0 0 0 .25-.25v-1.5a.25.25 0 0 0-.25-.25h-.94c-.032-.095-.08-.19-.122-.28l.656-.657a.276.276 0 0 0 0-.375l-1.03-1.03a.276.276 0 0 0-.377 0l-.656.655c-.09-.043-.183-.09-.28-.125V4.25A.25.25 0 0 0 8.75 4h-1.5zM8 7a1 1 0 1 1 0 2 1 1 0 0 1 0-2z" fill="url(#g)" overflow="visible"/></svg>
